X: 26332
T: Men Of The West, The
R: waltz
M: 3/4
K: Dmajor
|:(3ABc|d4cd|f2e2d2|a6|b4 a2|a2f2>e2|d2e2 fa|B4 (3BAB|c4 (3ABc|
d4cd|f2e2d2|a6|b4 a2|a2f2d2|e4de|1 d6-|d4:|2 d6-|d6||
|:a4ba|a2f2a2|d'4 c'2|b4 a2|a2 f3 e|d2e2 fa|B4 (3BAB|c4 (3ABc|
d4cd|f2e2d2|a6|b4 a2|a2f2d2|e4de|d6-|d6:|

